icons/1_Primary/CrowdStrike.svg

<svg xmlns="http://www.w3.org/2000/svg" width="1024" height="1024" fill="none">
   <g clip-path="url(#a)">
      <path fill="#FF837D" d="M512 1024c282.77 0 512-229.23 512-512S794.77 0 512 0 0 229.23 0 512s229.23 512 512 512Z"/>
      <path fill="#fff" d="M534.61 607.07c-22-9.48-32.26-12.88-67.39-21.9-41.3-10.62-81.92-32.71-109.08-67.17 19.16 14.18 58.25 42.73 98.39 39.64-6.1-9-17.35-16.08-30.81-23.19 12.61 3.06 46.27 11.72 91.9 50.2 22.23 14.49 49.5 28 87.5 23.41 52.34-6.3 87.53-18.53 154.44 32.4-12.37-1.26-34.35-4.39-61.86 9.78-27.51 14.17-38.32 14.76-51.82 13.27 4 7.42 12 17.58 37.29 19.41 25.29 1.83 37.35 2.6 24.06 34.75.31-9.71-1.93-28.47-27-25.19-25.07 3.28-31 26.32-4 37.84-8.76 1.8-27.3 2.89-40.55-32.51-9.18 4.07-23.32 12.23-49-8 8.92 3.3 20 3.5 20 3.5-22.77-11.08-44.52-31.72-58.45-51.24 11 8.41 23.24 16.77 35.57 18.35-9.44-11.72-26.89-31.06-49.19-53.35ZM550 440.87C409.73 402.95 353.95 355.09 310.8 305c19.71 57.67 66.69 78.3 116.91 117s53.06 59.54 67.83 82.41c32.95 51 38.19 59.38 70.89 81.65 38.53 24.15 85.13 7.81 136.27 15.38 51.14 7.57 93.41 44.4 102.59 58.56 10.72-18.06-14.9-44.12-21.81-50.65 3.7-23.66-55.53-34.07-78-42.17-4.41-1.59-15.3-4-5.85-25.22 12.74-29.31 26-54.82-149.67-101.12l.04.03Zm202.44 155.52c13.29 1.9 19.6 4.18 22.63 7.13 3.03 2.95 2.77 6.58 2.93 11.18a97.68 97.68 0 0 0-25.56-18.31Zm-276-54.72c-9-21.21-27.08-48.4-98-87.23C345.84 435.73 290 407 239.79 352.31 244.37 372 267.65 415.4 368 469.58c27.74 15.62 74.71 30.27 108.49 72.09h-.05Zm-12.28-43.12c-8.37-24-23.44-54.65-94.89-100.21-34.77-22.94-85.86-51.8-153.15-125.34 4.84 19.82 26.08 71.41 133.23 138.36 35.18 23.96 80.65 38.78 114.87 87.19h-.06Z"/>
   </g>
   <defs>
      <clipPath id="a">
         <path fill="#fff" d="M0 0h1024v1024H0z"/>
      </clipPath>
   </defs>
</svg>

<svg width="1024" height="1024" viewBox="0 0 1024 1024" fill="none" xmlns="http://www.w3.org/2000/svg">
<g clip-path="url(#clip0_2_1923)">
<path d="M512 1024C794.77 1024 1024 794.77 1024 512C1024 229.23 794.77 0 512 0C229.23 0 0 229.23 0 512C0 794.77 229.23 1024 512 1024Z" fill="#FF837D"/>
<path d="M534.61 607.07C512.61 597.59 502.35 594.19 467.22 585.17C425.92 574.55 385.3 552.46 358.14 518C377.3 532.18 416.39 560.73 456.53 557.64C450.43 548.64 439.18 541.56 425.72 534.45C438.33 537.51 471.99 546.17 517.62 584.65C539.85 599.14 567.12 612.65 605.12 608.06C657.46 601.76 692.65 589.53 759.56 640.46C747.19 639.2 725.21 636.07 697.7 650.24C670.19 664.41 659.38 665 645.88 663.51C649.88 670.93 657.88 681.09 683.17 682.92C708.46 684.75 720.52 685.52 707.23 717.67C707.54 707.96 705.3 689.2 680.23 692.48C655.16 695.76 649.23 718.8 676.23 730.32C667.47 732.12 648.93 733.21 635.68 697.81C626.5 701.88 612.36 710.04 586.68 689.81C595.6 693.11 606.68 693.31 606.68 693.31C583.91 682.23 562.16 661.59 548.23 642.07C559.23 650.48 571.47 658.84 583.8 660.42C574.36 648.7 556.91 629.36 534.61 607.07ZM550 440.87C409.73 402.95 353.95 355.09 310.8 305C330.51 362.67 377.49 383.3 427.71 422C477.93 460.7 480.77 481.54 495.54 504.41C528.49 555.41 533.73 563.79 566.43 586.06C604.96 610.21 651.56 593.87 702.7 601.44C753.84 609.01 796.11 645.84 805.29 660C816.01 641.94 790.39 615.88 783.48 609.35C787.18 585.69 727.95 575.28 705.48 567.18C701.07 565.59 690.18 563.18 699.63 541.96C712.37 512.65 725.63 487.14 549.96 440.84L550 440.87ZM752.44 596.39C765.73 598.29 772.04 600.57 775.07 603.52C778.1 606.47 777.84 610.1 778 614.7C770.525 607.257 761.893 601.073 752.44 596.39ZM476.44 541.67C467.44 520.46 449.36 493.27 378.44 454.44C345.84 435.73 290 407 239.79 352.31C244.37 372 267.65 415.4 368 469.58C395.74 485.2 442.71 499.85 476.49 541.67H476.44ZM464.16 498.55C455.79 474.55 440.72 443.9 369.27 398.34C334.5 375.4 283.41 346.54 216.12 273C220.96 292.82 242.2 344.41 349.35 411.36C384.53 435.32 430 450.14 464.22 498.55H464.16Z" fill="white"/>
</g>
<defs>
<clipPath id="clip0_2_1923">
<rect width="1024" height="1024" fill="white"/>
</clipPath>
</defs>
</svg>
